X:493
T:Old Abigail's Delight. (p)1702.PLFD.493
M:3/2
L:1/4
Q:1/2=150
S:Playford, Dancing Master,Supp.to 11th Ed.,1702.
O:England
Z:Chris Partington.
K:F
f2FGAF|cAd/e/fec|f2FGAd/c/|=BcdBc2:|
|:e2e/f/gce|fe/d/cBAc|d>c d/e/fFG|G3FF2:|
